!!!!SEGMENT: pl-kc--40102-iii-1-saf--002-050_zielenski-mikolaj--communiones-totius-anni-motteto-a-5-benedicite-deum-caeli.krn
!!!cenid: 16xx:1581
!!!COM: Zieleński, Mikołaj
!!!COM-rismid: pe30013481
!!!CDT:
!!!CNT: Polish
!!!GTL: Communiones totius anni
!!!OTL: Motteto a 5./Benedicite Deum caeli
!!!OMV: 050
!!!PDT: 1611
!!!AGN:
!!!SMS-siglum: PL-Kc
!!!SMS-shelfmark: 40102 III/1 Saf.
!!!SMS-shelfwork: 002-050 G
!!!SMS-variant:
!!!SMS-altvar:
!!!NIFC-rismid: 990069887
!!!URL-scan: https://cyfrowe.mnk.pl/dlibra/publication/24235/edition/23926/content?ref=desc
!!!ONB-nifc: UWAGA: str. 72-73. Numer w źródle: 58. Uwaga: W xml metrum 2/1 do źródłowego C| i odpowiednio 3/1 do 3/2
!!!key: C:ion
**kern	**kern	**kern	**kern	**kern
*group1	*group1	*group1	*group1	*group1
*part5	*part4	*part3	*part2	*part1
*staff5	*staff4	*staff3	*staff2	*staff1
*I""Organo	*	*	*	*
*Iorgan	*Iorgan	*Iorgan	*Iorgan	*Iorgan
*ICklav	*ICklav	*ICklav	*ICklav	*ICklav
*clefF4	*clefC4	*clefC3	*clefC1	*clefC1
*k[b-]	*k[b-]	*k[b-]	*k[b-]	*k[b-]
*C:ion	*C:ion	*C:ion	*C:ion	*C:ion
*M2/1	*M2/1	*M2/1	*M2/1	*M2/1
*met(C|)	*met(C|)	*met(C|)	*met(C|)	*met(C|)
*MM150	*MM150	*MM150	*MM150	*MM150
=1	=1	=1	=1	=1
!LO:TX:t=P:problem=all/middle&colon; global	!LO:TX:t=P:problem=all/middle&colon; global	!LO:TX:t=P:problem=all/middle&colon; global	!LO:TX:t=P:problem=all/middle&colon; global	!LO:TX:t=P:problem=all/middle&colon; global
!LO:TX:t=P:problem=all\middle&colon; global	!LO:TX:t=P:problem=all\middle&colon; global	!LO:TX:t=P:problem=all\middle&colon; global	!LO:TX:t=P:problem=all\middle&colon; global	!LO:TX:t=P:problem=all\middle&colon; global
!	!	!	!LO:TX:a:t=Benedicite Deum caeli.	!LO:TX:a:t=58. Motteto à 5.
00r	00r	00r	0r	1.cc
.	.	.	.	2dd\
=2-	=2-	=2-	=2-	=2-
.	.	.	1r	2.cc\
.	.	.	.	4cc\
.	.	.	[y1f	2a\
.	.	.	.	[y2cc\
=3	=3	=3	=3	=3
!	!	!	!LO:N:vis=4:xstem:cue	!LO:N:xstem:cue
00r	00r	0r	2f/]	4cc\]
.	.	.	.	4b-\
.	.	.	2g/	4b-\
.	.	.	.	8a\
.	.	.	.	8g\
.	.	.	2.f/	4a\
.	.	.	.	4d/
.	.	.	.	2.dd\
.	.	.	4f/	.
=4-	=4-	=4-	=4-	=4-
.	.	1r	2d/	.
.	.	.	.	4cc\
.	.	.	4g/	4b-\
.	.	.	4f/	4a\
.	.	[y1c	4e/	4g/
.	.	.	4d/	8a\
.	.	.	.	8b-\
.	.	.	4e/	[y2cc\
.	.	.	8f/	.
.	.	.	8g/	.
=5	=5	=5	=5	=5
!	!	!LO:N:vis=4:xstem:cue	!	!LO:N:xstem:cue
00r	0r	2c\]	2a\	4cc\]
!	!	!	!	!LO:N:acc=#
.	.	.	.	8bn\
.	.	.	.	8a\
!	!	!	!	!LO:SIC:v:s:t=2bn
.	.	2d\	4g/	2b-y\
.	.	.	4f/	.
.	.	2.c/	2g/	2cc\
.	.	.	2e/	2g/
.	.	4c/	.	.
=6-	=6-	=6-	=6-	=6-
.	1.F	2A/	4f/	1a
.	.	.	4g/	.
.	.	4c/	4a\	.
.	.	4B-/	4b-\	.
.	.	4A/	2cc\	1r
.	.	8G/	.	.
.	.	8A/	.	.
.	2G/	2B-/	2b-\	.
=7	=7	=7	=7	=7
0r	2.F/	1.c	2.a\	2r
.	.	.	.	1cc
.	4F/	.	8g/	.
.	.	.	8f/	.
.	2E/	.	2g/	.
.	2D/	1f\	2a\	2dd\
=8-	=8-	=8-	=8-	=8-
1r	2.A/	.	1a	2.cc\
.	.	4e\	.	.
.	4B-\	4d\	.	4cc\
[y1C	2c\	1e	1g	2g/
.	4c\	.	.	[y2cc\
.	4B-\	.	.	.
=9	=9	=9	=9	=9
!LO:N:vis=4:xstem:cue	!	!	!	!LO:N:xstem:cue
2C/]	4A/	2e\	1r	4cc\]
.	4G/	.	.	4b-\
2D/	4F/	2A/	.	4a\
.	4G/	.	.	8g/
.	.	.	.	8f/
2.C/	4A/	1.c	2r	4e/
.	8G/	.	.	4f/
.	8F/	.	.	.
.	2E/	.	1cc\	4g/
4C/	.	.	.	8f/
.	.	.	.	8g/
=10-	=10-	=10-	=10-	=10-
2AA/	1.F	.	.	2a\
2BB-/	.	2B-/	2dd\	2f/
2FF/	.	1c	2.cc\	1a
[y2F\	[y2A/	.	.	.
.	.	.	4cc\	.
=11	=11	=11	=11	=11
!LO:N:xstem:cue	!LO:N:xstem:cue	!	!	!
4F\]	4A/]	2d\	2a\	2a\
4E\	4G/	.	.	.
4D/	4F/	1f	1dd	2a\
4C/	4E/	.	.	.
2BB-/	2D/	.	.	2b-\
2C/	2A/	2e\	2cc\	2.a\
=12-	=12-	=12-	=12-	=12-
2D/	1d	2f\	1b-	.
.	.	.	.	8g/
.	.	.	.	8f/
2E\	.	4e\	.	2g/
.	.	4d\	.	.
2F\	2c\	2a\	2a\	2a\
[<2FF/	[<2A/	[<2f\	[<2a\	[<2cc\
=13	=13	=13	=13	=13
2FF/]	2A/]	2f\]	2a\]	2cc\]
2GG/	4G/	2d\	2b-\	2b-\
.	4F/	.	.	.
2.AA/	2.E/	2.c/	2.cc\	2.a\
4FF/	4F/	4c/	4cc\	4a\
=14-	=14-	=14-	=14-	=14-
2C/	2E/	2c/	2g/	2g/
1GG	2G/	1d	1g	1b-
.	2G/	.	.	.
2GG/	[y2G/	2G/	2d/	2b-\
=15	=15	=15	=15	=15
!	!LO:N:xstem:cue	!	!	!
1D	4G/]	1A	1d	1a
!	!LO:TX:t=P:global:problem=zamiast # jest x	!	!	!
.	8F#X/	.	.	.
.	8E/	.	.	.
!	!LO:SIC:v:s:t=2F#	!	!	!
.	2Fny/	.	.	.
!	!	!LO:N:acc=#	!	!
2GG/	2G/	2Bn/	2d/	1.g
2.C/	4G/	1c\	1e/	.
.	4F/	.	.	.
=16-	=16-	=16-	=16-	=16-
.	4E/	.	.	.
4BB-/	4D/	.	.	.
4AA/	2C/	1c	2e/	2.cc\
4GG/	.	.	.	.
2FF/	2F/	.	2.f/	.
.	.	.	.	4b-\
2FF/	[<2F/	2d\	.	2a\
.	.	.	4e/	.
=17	=17	=17	=17	=17
!	!	!LO:N:acc=#	!	!
0GG	2F/]	2Bn/	2d/	0g
.	2E/	2.c/	2c/	.
.	1D	.	1d	.
!	!	!LO:N:acc=#	!	!
.	.	8Bn/	.	.
.	.	8A/	.	.
!	!	!LO:SIC:v:s:t=2Bn/	!	!
.	.	2B-y/	.	.
=18-	=18-	=18-	=18-	=18-
*M3/1	*M3/1	*M3/1	*M3/1	*M3/1
0.CC	0.C	0.c	0.e	0.g
=19	=19	=19	=19	=19
0.r	0.r	1c	1e	1g
.	.	1A	1a	1cc
.	.	1d	1f#X	1a
!LO:SIC:v:t=custos C	!LO:SIC:v:t=custos G	!LO:SIC:v:t=custos G	!LO:SIC:v:t=custos g	!LO:SIC:v:t=custos b-
!LO:LB:g=original	!LO:LB:g=original	!LO:LB:g=original	!LO:LB:g=original	!LO:LB:g=original
=20	=20	=20	=20	=20
00.r	00.r	1.G	1.g	1.b-
.	.	2G/	2g/	2b-\
.	.	1c	1e	1g
=21-	=21-	=21-	=21-	=21-
.	.	1c	1e	1g
.	.	1A	1f#X	1a
!	!	!	!	!LO:N:acc=#
.	.	1G	1g	1bn
=22-	=22-	=22-	=22-	=22-
00.r	00.r	1.F	1.a	1.cc
.	.	2F/	2a\	2cc\
.	.	1B-	1d	1b-y
=23-	=23-	=23-	=23-	=23-
.	.	1G	1g	1b-
.	.	1.d	1.fny	1.a
.	.	2d\	2f/	2a\
=24	=24	=24	=24	=24
!	!	!	!	!LO:N:acc=#
00.r	00.r	0.G	0.g	0.bn
=25-	=25-	=25-	=25-	=25-
.	.	0c	0e	0cc
.	.	1d	1f	1a
=26-	=26-	=26-	=26-	=26-
00.r	00.r	1.B-	1.d	0dd
.	.	2c/	2e/	.
.	.	2d\	2f/	1dd
.	.	2e\	2g/	.
=27-	=27-	=27-	=27-	=27-
.	.	1f	1a	1.cc
.	.	0d	1a	.
!	!	!	!	!LO:N:acc=#
.	.	.	.	4bn\
.	.	.	.	4a\
!	!	!	!	!LO:SIC:v:s:t=1bn
.	.	.	2g/	1b-y
.	.	.	2f/	.
=28	=28	=28	=28	=28
0.r	0.r	0.c	0.g	0.cc
=29-	=29-	=29-	=29-	=29-
1C	1G	1e	0.r	0.r
1AA	1c	1a	.	.
1D	1A	1f#X	.	.
=30-	=30-	=30-	=30-	=30-
!	!LO:N:acc=#	!	!	!
1.GG	1.Bn	1.g	00.r	00.r
!	!LO:SIC:v:s:t=2Bn	!	!	!
2GG/	2B-y\	2g\	.	.
!	!LO:SIC:v:s:t=1Bn	!	!	!
1GG	1B-	1g	.	.
=31-	=31-	=31-	=31-	=31-
1C	1c	1e	.	.
1FF	1A	1fny	.	.
1FF	1A	1c	.	.
=32	=32	=32	=32	=32
1.C	1.G	1.e	00.r	00.r
2C/	2G/	2e\	.	.
1GG	1B-	1d	.	.
=33-	=33-	=33-	=33-	=33-
1GG	1B-	1g	.	.
1D	1B-	1g	.	.
1D	1A	1f#X	.	.
=34-	=34-	=34-	=34-	=34-
!	!LO:N:acc=#	!	!	!
0GG	0Bn	1g	00.r	00.r
.	.	1g	.	.
1C	1c	1e	.	.
=35-	=35-	=35-	=35-	=35-
1.FF	1.A	1.fny	.	.
2GG/	2G/	2e\	.	.
1BB-	1F	2d\	.	.
.	.	2c\	.	.
=36	=36	=36	=36	=36
1C	1E	1.c	00.r	00.r
1GG	1D	.	.	.
!	!	!LO:N:acc=#	!	!
.	.	4Bn/	.	.
.	.	4A/	.	.
!	!	!LO:SIC:v:s:t=1Bn	!	!
1GG	1D	1B-y	.	.
=37-	=37-	=37-	=37-	=37-
0.C	0.E	0.c	.	.
=38-	=38-	=38-	=38-	=38-
1C	1G	1e	1g	1cc
1GG	1B-	1d	1g	1dd
1GG	1G	1d	1g	1b-
=39-	=39-	=39-	=39-	=39-
1.D	1.A	1.d	1.f#X	1.a
!	!	!	!LO:SIC:v:s:t=2f#	!
2D/	2A/	2d\	2fny/	2a\
!	!	!	!	!LO:N:acc=#
1GG	1G	1d	1g	1bn
=40	=40	=40	=40	=40
1C	1G	1e	1g	1cc
1C	1G	1e	1g	1cc
1FF	1c	1f	1a	1a
=41-	=41-	=41-	=41-	=41-
0BB-	0F	0d	0f	0b-
1BB-	1F	1d	1f	1b-
=42-	=42-	=42-	=42-	=42-
0FF	0F	0c	0f	0a
1C	1G	1c	1e	1g
=43-	=43-	=43-	=43-	=43-
0GG	0G	0d	0g	0b-
1GG	1G	1d	1g	1b-
=44	=44	=44	=44	=44
*M2/1	*M2/1	*M2/1	*M2/1	*M2/1
*met(C|)	*met(C|)	*met(C|)	*met(C|)	*met(C|)
2D/	2A/	2d\	2f#X/	2a\
1BB-	1B-	1f	1b-	1dd
2BB-/	2F/	2f\	2b-\	2dd\
=45-	=45-	=45-	=45-	=45-
1FF	2.A/	1.f	2.a\	2.cc\
.	4G/	.	4b-\	4b-\
2FF/	4F/	.	2cc\	2a/
.	4C/	.	.	.
2GG/	4G/	2d\	2b-\	[<2g/
.	4F/	.	.	.
=46	=46	=46	=46	=46
*	*	*	*lig	*
2.AA/	4E/	1c	1a	4g/]
.	4C/	.	.	4f/
.	2.c\	.	.	2.f/
4BB-/	.	.	.	.
1C	.	1c	1g	.
.	4B-\	.	.	8e/
.	.	.	.	8d/
.	2G/	.	.	2e/
*	*	*	*Xlig	*
=47-	=47-	=47-	=47-	=47-
2FF/	2A/	2c/	1f	1f
2F\	2A/	2c/	.	.
2E\	2G/	2c/	1r	1r
[y2F\	[y2A/	[y2c/	.	.
=48	=48	=48	=48	=48
!LO:N:xstem:cue	!LO:N:xstem:cue	!LO:N:xstem:cue	!	!
4F\]	4A/]	4c/]	0r	0r
4F\	4A/	4c/	.	.
2C/	2.c\	2e\	.	.
1G	.	1d	.	.
!	!LO:N:acc=#	!	!	!
.	8Bn\	.	.	.
.	8A\	.	.	.
!	!LO:SIC:v:s:t=2Bn\	!	!	!
.	2B-y\	.	.	.
=49-	=49-	=49-	=49-	=49-
1C	2c\	1e	2r	2r
.	2c\	.	2e/	2g/
1r	2A/	1r	2a\	2cc\
.	[y2B-\	.	[y2d/	[y2b-\
=50	=50	=50	=50	=50
!	!LO:N:xstem:cue	!	!LO:N:xstem:cue	!LO:N:xstem:cue
0r	4B-\]	0r	4d/]	4b-\]
.	4B-\	.	4d/	4b-\
.	2G/	.	4g/	2b-\
.	.	.	2g/	.
.	1d	.	.	1a
.	.	.	8f#X/	.
.	.	.	8e/	.
!	!	!	!LO:SIC:v:s:t=2f#/	!
.	.	.	2fny/	.
!LO:SIC:v:t=custos GG	!LO:SIC:v:t=custos G	!LO:SIC:v:t=custos g	!LO:SIC:v:t=custos g	!LO:SIC:v:t=custos bn
!LO:PB:g=original	!LO:PB:g=original	!LO:PB:g=original	!LO:PB:g=original	!LO:PB:g=original
=51-	=51-	=51-	=51-	=51-
!	!	!	!	!LO:N:acc=#
2r	2G/	2r	2g/	2bn\
2GG/	2G/	2g\	2b-\	2dd\
2D/	2A/	2f\	2a\	2ff\
[y2AA/	[y2A/	[y2a\	[y2cc\	[y2ee\
=52	=52	=52	=52	=52
!LO:N:xstem:cue	!LO:N:xstem:cue	!LO:N:xstem:cue	!LO:N:xstem:cue	!LO:N:xstem:cue
4AA/]	4A/]	4a\]	4cc\]	4ee\]
4AA/	4A/	4a\	4cc\	4ee\
2AA/	2A/	2f\	2cc\	2ff\
1BB-	1F	1f	1b-	1dd
=53-	=53-	=53-	=53-	=53-
2FF/	2F/	2f\	2a\	2cc\
2C/	2G/	2e-X\	2g/	2cc\
!	!	!LO:SIC:v:s:t=2e-\	!	!
2C/	2G/	2eny\	2g/	2cc\
2C/	2G/	2c/	2g/	2ee-X\
=54	=54	=54	=54	=54
2.GG/	2.G/	2.g\	2.b-\	2.dd\
4GG/	4G/	4g\	4b-\	4dd\
2D/	2A/	2f\	2a\	2dd\
2BB-/	2D/	2f\	2b-\	2dd\
=55-	=55-	=55-	=55-	=55-
2BB-/	2D/	2f\	2b-\	2dd\
2BB-/	2F/	2f\	2b-\	2dd\
1FF	2.F/	2f\	2.a\	2.cc\
.	.	[<2c/	.	.
.	4G/	.	4g/	4b-\
=56	=56	=56	=56	=56
2FF/	2A/	2c/]	2f/	2a\
2C/	2E/	2c/	4e/	2.g/
.	.	.	4d/	.
2AA/	1F	0.c	2c/	.
.	.	.	.	4f/
4GG/	.	.	1cc\	1f/
4FF/	.	.	.	.
=57-	=57-	=57-	=57-	=57-
0C	0G	.	.	.
.	.	.	2cc\	4e/
.	.	.	.	4d/
.	.	.	1g	1e
=58	=58	=58	=58	=58
2FF/	2F/	2c/	1.a	1.f
2F\	2A/	2c/	.	.
2F\	2A/	2c/	.	.
2F\	2A/	2c/	2a\	2ff\
=59-	=59-	=59-	=59-	=59-
*	*	*lig	*	*
2.F\	0A	1c	2a\	2ff\
.	.	.	2a\	2ff\
4E\	.	.	.	.
1D	.	1d	(<1a	2.ff\
.	.	.	.	4ee\
*	*	*Xlig	*	*
=60	=60	=60	=60	=60
0BB-	1d	0f	1b-)	1dd
.	1d	.	1b-	1b-
=61-	=61-	=61-	=61-	=61-
1F	2.c\	1f	1a	1cc
.	4B-\	.	.	.
1FF	2A/	1.f	1a	1cc
.	4G/	.	.	.
.	4F/	.	.	.
=62-	=62-	=62-	=62-	=62-
[0Cl/	[0Gl/	.	[0gl\	[0ccl\
.	.	4e\	.	.
.	.	4d\	.	.
.	.	[1el\	.	.
=63-	=63-	=63-	=63-	=63-
0C]	0G]	0e]	0g]	0cc]
==	==	==	==	==
*-	*-	*-	*-	*-
!!!system-decoration: g1
!!!RDF**kern: l = terminal long
!!!RDF**kern: > = above
!!!RDF**kern: < = below
!!!AIN: 5 organ
!!!ENC: Anastazja Marusiak
!!!END: 2021-12-22
!!!EED: Jędrzej Mróz
!!!EST: 2021-12-27
